X: 1
T: Clee Hill
M: 4/4
L: 1/8
R: reel
K: Dmaj
|:F3 G A3 F/G/ | AdcB A2 F2 | E3 F G3 A | Bc/B/ AG FDFG |
F3 G A3 F/G/ | AdcB A2 F2 | E3 F G3 A | BABc d3 e :|
|:fAfA f3 A/A/ | ABcd c2 B2 | gBgB g3 B | ABcd ecBA |
fAfA f3 A/A/ | ABcd c2 B2 | BcdB Adf>g | feBc d4:|
